X:1
T:The Birks of Invermay
L:1/8
M:4/4
I:linebreak $
K:G
V:1 treble 
V:1
 B>c |"G" d3 e d>B A>G |"Am" A>G A>B"C" E3 G |"G" D>E DB, D2 G>D | B,2 D>E"D7" D2 G>B | x8 |$ %6
"G" d2 ef/g/ d<B A>G |"Am" c>B AG"C" E2 B>A |"G" G>E DB, D2 G>A |"G" B2"D7" A>G"G" G2 | D>C | %11
"G" B,3 D"Em" E>D E<G |$"Am" A>G A<B"C" E2 e2 |"G" d>e d>B"^(Em)" c>B A<G | %14
"Am" c>d c>B"D7" A2 d>c | x8 |"G" B>d e>f"Em" g3 e |"G" d>B A>G"C" E2 B>A |$ %18
"G" G>E"^/F" DB,"Em" D2 G>A |"D7" B2 A>G"G" G2 |] %20
